svg/account_card.svg

<svg xmlns="http://www.w3.org/2000/svg" viewBox="0 0 24 24"><path d="M7 12c2.2 0 4-1.8 4-4S9.2 4 7 4 3 5.8 3 8s1.8 4 4 4m4 8v-5.3c-1.1-.4-2.5-.7-4-.7-3.9 0-7 1.8-7 4v2zm4-16c-1.1 0-2 .9-2 2v12c0 1.1.9 2 2 2h7c1.1 0 2-.9 2-2V6c0-1.1-.9-2-2-2z"/></svg>

<svg xmlns="http://www.w3.org/2000/svg" id="mdi-account-card" viewBox="0 0 24 24"><path d="M7 12C9.2 12 11 10.2 11 8S9.2 4 7 4 3 5.8 3 8 4.8 12 7 12M11 20V14.7C9.9 14.3 8.5 14 7 14C3.1 14 0 15.8 0 18V20H11M15 4C13.9 4 13 4.9 13 6V18C13 19.1 13.9 20 15 20H22C23.1 20 24 19.1 24 18V6C24 4.9 23.1 4 22 4H15Z" /></svg>
